X:1
T:MASONIC MARCH
T:MASONIC MARCH
T:NATHAN BARKER
T:1859
T:1859
T:1859
T:1859
C:NATHAN BARKER
Z:1859
%%score { ( 1 4 ) | ( 2 3 ) }
L:1/8
M:4/4
K:G
V:1 treble nm="Piano" snm="Pno."
V:4 treble 
V:2 bass 
V:3 bass 
V:1
 g>a |!ped! ([dgb]4 [dgb]>)[ca]!ped-up! [Bg]>[ce] |!ped! ([Bd]4 [GB]) z/!ped-up! !+!d/ !2!g>a | %3
!ped! ([gb]4 [gb]>)[fa]!ped-up! [gb]>[bd'] |!ped! ([Bfa]4 [Bfa])!ped-up! z (!2!g>a) | %5
!ped! ([dgb]4 [dgb]>)[ca]!ped-up! [Bg]>[ce] |!ped! ([Bd]4 [GB])!ped-up! z [eg]>e' | %7
!ped! ([dd']4 [dd']>)b!ped-up!!>(! [dfa]>b!>)! | [dg] z!ff!!8va(! [gbg']>[gbg'] [gbg'] z!8va)! :| %9
!p! ([gbac']3/2 z/ | ([gb]4 [gb]>)([ac'] [bd']>[gb]) |!>(! ([bd']4 [bd'])!>)! z!p! (g>a) | %12
 b>b a>a ([gc']b[ea]g) | ([dgb]4 [dfa]) z!<(! (g>a)!<)! | %14
!ped! ([dgb]4 [dgb]>)[ca]!ped-up! [Bg]>[ce] |!ped! ([Ad]4 [GB]) z!ped-up! [gb]>e' | %16
!ped! ([dd']4 [dd']>)b!ped-up!!>(! [dfa]>.b!>)! | [dg] z!f!!8va(! [gbg']>[gbg'] [gbg'] z!8va)! :| %18
[K:C]"^\"Ever of thee I'm fondly dreaming.\"" (Gcd) | [Ge]2 [Ge]>[Ge] [Ge]2 z d | %20
 (!>!dcEF) ([FA]2 [EG]) z | ([Ec]2 [Fd]>[Ec] [DB]2) z G | ([Fd]2 [Ge]>[Fd] [Ec]2) z2 | %23
 [Ge]2 [Ge]>[Ge] [Ge]2 z d | (!>!dcEF) ([FA]2 [EG]) z | ([Fc]2 [Gd]>[Fc] [EB]2) z G | %26
 ([Fd]2 [Gd]>[Fc] [DB]2) z G | ([Fd]2 !>![FBe]>d [Ec])!f!(c'/b/) (!>!d'/c'/g/e/) | %28
 d(a/^g/) (!>!.b/.a/.f/.B/) .A(=g/^f/) (!>!a/g/e/c/ | %29
 .B)(d/e/ f/g/a/g/)!ped! .e(c'/!ff!b/) (d'/c'/g/e/)!ped-up! | %30
!ped! .d(a/^g/) (!>!b/a/f/d/!ped-up!!ped! .c)((=g/^f/)) (!>!a/g/e/c/)!ped-up! | %31
 (B/c/d/e/ f/g/a/b/ c'2) z2 | e2{/g} f>e [ca]3 a | (a3 g/f/ e>)(g f/e) z/ | %34
 g2 (a>g) (e3/2a/4g/4 fe) | (e2 d>c [^GB]) z [=G=g]^f/=f/ | %36
!pp!!8va(! [ee']2 [ee']>[ee'] [ee']3 d' | (d'c'ef) ([fa]2 [eg]) z | %38
 ([ec']2 [fd']>[ec'] [db]2) z g | ([fd']2 !>![fbe']>d' [ec']2) z2 | %40
!f! [gc'e']2 [gc'e']>[gc'e'] [gc'e']3 [ec'] | [ec']2 [fd']>[ge'] [ff']4 | %42
 [^f^f']2!f! [ff']>[ff'] [gg']2 [gc']>f' | .[gf'ge']2 [ge']/ d'/ a2 z2 x | %44
!p! [dd']2 [ee']>[ge'] ([ag']2 [gc']>)e' | [ge'] z [ge']>d' [ec']!8va)!!f!(c'/b/) (!>!d'/c'/g/e/) | %46
 .d(a/^g/) (!>!b/a/f/d/ .c)(=g/^f/) (!>!a/g/e/c/) | %47
 .B(d/e/ f/g/a/g/!ped! .e)(c'/b/) (d'/!>!c'/g/e/)!ped-up! | %48
!ped! d(a/^g/) (!>!b/a/f/d/!ped-up!!ped! .c)!ped-up!(=g/^f/) (!>!a/g/e/c/) | %49
 (B/c/d/e/ f/g/a/b/ c') ||[K:G] z/ (.d/.e/.f/ .g/.a/) |: %51
!ped! ([dgb]4 [dgb]>)!ped-up![ca] [Bg]>[ce] |!ped! [Bd]4 [GB]!ped-up! z/ d/ g>a | %53
!ped! ([gb]4 [gb]>)!ped-up![=fa] [gb]>[bd'] |!ped! ([dfa]4 [dfa]) z!ped-up! g>a | %55
!ped! ([dgb]4 [dgb]>)!ped-up![ca] [Bg]>[ce] |!ped! ([Bd]4 [GB]) z!ped-up! !>![eg]>g' | %57
!ped! ([dd']4 [dd']>)(b!ped-up! !>![dfa]>b) |1 %58
!8va(! [d'g'] z!ff! [gbg']>[gbg'] [gbg'] z!8va)! g>a :|2 %59
!8va(! [d'g'] z!ff! [gbg']>[gbg'] [gbg']!8va)! z |] ([gb]3 [ac']/) | %61
 ([bd']4 [bd']>)([c'e'] [bd']>[gb]) |!>(! ([bd']4 [bd'])!>)! z!p! (g>a) | b>b a>a ([gc']b[ea])g | %64
 ([dgb]4 [cfa]) z!<(! (g>a)!<)! |!ped! ([dgb]4 [dgb]>)!ped-up![ca] [Bg]>[ce] | %66
!ped! [Bd]4 [Ac]!ped-up! z !>![eg]>e' |!ped! ([dd']4 [dd']>)!ped-up!(b !>![cfa]>b) | %68
 [dg] z!ff! [GBg]>[GBg] [GBg]2 |] %69
V:2
 z2 | [G,,G,] z [D,G,B,]>[D,G,B,] [D,G,B,] z z2 | [G,,G,] z [D,G,B,]>[D,G,B,] [D,G,B,] z z2 | %3
 [G,,G,] z [D,G,B,]>[D,G,B,] [D,G,B,] z z2 | %4
 [D,,D,] z [D,D]>[D,D] [D,D] z/ [C,C]/ [B,,B,]>[A,,A,] | %5
 [G,,G,] z [D,G,B,]>[D,G,B,] [D,G,B,] z z2 | [G,,G,] z [D,G,B,]>[D,G,B,] [D,G,B,] z [C,C]2 | %7
 [D,D][K:treble][DGB]>[DGB][DGB] [DGB]2 [DGB]2 | [GB] z[K:bass] [G,,D,G,]>[G,,D,G,] [G,,D,G,] z :| %9
 x/[K:treble] x/ z | ([GB]D[GB]D) ([GB]D[GB]D) | ([GB]D[GB]D) [GB] z[K:bass] B,>D | %12
 !+!G2 !1!F2 !+!EDC^C | D>D, G,>B, D z/ [C,C]/ [B,,B,]>[A,,A,] | %14
 .[G,,G,] z [D,G,B,]>[D,G,B,] [D,G,B,] z z2 | .[G,,G,] z [D,G,B,]>[D,G,B,] [D,G,B,] z ([C,C]2 | %16
 [E,D])[K:treble] z [DGB]>[DGB] [DGB]2 ([DAc]2 | [GB]) z[K:bass] [G,,E,G,]>[G,,E,G,] [G,,E,G,] z :| %18
[K:C]"^dolcemente." z z2 | C,4 C,4 | C,4 x4 | C,4 D,4 | G,,4 C,4 | C,4 C,4 | C,4 x4 | C,4 D,4 | %26
 G,,4 C,4 | [G,,F,]4 z4 | %28
"^cres                 -                   -     cen                  -                 -         do." F,[A,D][A,D][A,D] G,[CE][CE][CE] | %29
 G,[B,F][B,F][B,F] [C,C][G,CE][G,CE][G,CE] | %30
 [F,,F,][F,A,D][F,A,D][F,A,D] [G,,G,][G,CE][G,CE][G,CE] | [G,DF][G,DF][G,DF][G,DF] [CE]2 z2 | %32
"^calore." A,4 A,4 | A,4 A,4 | B,4 C4 |"^ritenuto." F,4 z4[K:treble] | x GcG x GcG | x GcG FcCc | %38
 C[DG][DG][DG] D[FG][FG][FG] | A,[DG][DG][DG] C[EG][EG][EG][K:bass] | C,4 C,4 | x8 | %42
 [_A,,_A,][A,C_E][A,CE][A,CE] [G,,G,][G,C=E][G,CE][G,CE] | [DF][DF][DF]A, [CE][CE][CE] z | %44
 D,[A,D][A,D][A,D] G,[CE][CE][CE] | G,[DF][DF][DF] [C,C][G,CE][G,CE][G,CE] | %46
 F,[A,D][A,D][A,D] G,[CE][CE][CE] | G,[DA][DA][DA] [C,C][G,CE][G,CE][G,CE] | %48
 [F,,F,][F,A,D][F,A,D][F,A,D] [G,,G,][G,CE][G,CE][G,CE] | [G,DF][G,DF][G,DF][G,DF] [CE] || %50
[K:G] z2 z |: [G,,G,] z [D,G,B,]>[D,G,B,] [D,G,B,] z z2 | z [D,G,B,]>[D,G,B,][D,G,B,] z z2 z | %53
 [A,,G,] z [D,G,B,]>[D,G,B,] [D,G,B,] z z2 | [D,,D,] z [D,D]>[D,D] [D,D]>[C,C] [B,,B,]>[A,,A,] | %55
 [G,,G,] z [D,G,B,]>[D,G,B,] [D,G,B,] z z2 | [G,,G,] z [D,G,B,]>[D,G,B,] [D,G,B,] z ([C,C]2 | %57
 [D,D]) z[K:treble] [DGB]>[DGB] [DGB]2 ([DGB]2 |1 %58
 [GB]) z[K:bass] [G,,D,G,]>[G,,D,G,] [G,,D,G,] z z2 :|2 %59
 [GB] z[K:bass] [G,,D,G,]>[G,,D,G,] [G,,D,G,] z |] z2 z[K:treble] x/ | ([GB]D[GB]D) ([GB]D[GB]D) | %62
 ([GB]D[GB]D) [GB] z[K:bass] B,>D | !+!G2 !1!F2 EDC^C | D>D, G,>B, D z/ [C,C]/ [B,,B,]>[A,,A,] | %65
 [G,,G,] z [D,G,B,]>[D,G,B,] [D,G,B,] z z2 | [G,,G,] z [D,G,B,]>[D,G,B,] [D,G,B,] z ([C,C]2 | %67
 [D,D]) z[K:treble] [DGB]>[DGB] [DGB]2 ([DAc]2 | [GB]) z[K:bass] [G,,D,G,]>[G,,D,G,] [G,,D,G,]2 |] %69
V:3
 x2 | x8 | x8 | x8 | x8 | x8 | x8 | x[K:treble] x7 | x2[K:bass] x4 :| x/[K:treble] x3/2 | x8 | %11
 x6[K:bass] x2 | x8 | x8 | x8 | x8 | x[K:treble] x7 | x2[K:bass] x4 :|[K:C] x3 | %19
 (G, x CG,) x (G,CG,) | (x G,CG,) (F,CC,C) | x (.[E,G,].[E,G,].[E,G,]) x ([F,G,][F,G,][F,G,]) | %22
 x (.[B,,D,G,].[B,,D,G,].[B,,D,G,]) x (.[E,G,].[E,G,].[E,G,]) | (x G,CG,) (x G,CG,) | %24
 (x G,CG,) (G,C)(C,C) | (z .[E,G,].[E,G,].[E,G,]) (z .[F,G,].[F,G,].[F,G,]) | %26
 (z .[E,G,].[E,G,].[E,G,]) z (.[F,G,].[F,G,].[F,G,]) | %27
 F,(.[D,G,].[D,G,].[D,G,]) C,[E,G,C][E,G,C][E,G,C] | x8 | x8 | x8 | x8 | %32
 z [CE][CE][CE] z [CE][CE][CE] | x [G,B,][G,B,][G,B,] x [G,B,][G,B,][G,B,] | %34
 x [DFG][DFG][DFG] x [EG][EG][EG] | x [F,B,][F,B,][F,^B,] [C,^B,E] z"^ad lib:" [G,DF][K:treble] z | %36
 C4 C4 | C4 x4 | x8 | x7 x/[K:bass] x/ | z [G,C][G,C][G,C] z [G,C][G,C][G,C] | %41
 C,"^cres   -     -      cen        - do"C[B,,B,][_B,,_B,] [A,,A,][A,CF][A,CF][A,CF] | x8 | x8 | %44
 x8 | x8 | x8 | x8 | x8 | x5 ||[K:G] x3 |: x8 | x8 | x8 | x8 | x8 | x8 | x2[K:treble] x6 |1 %58
 x2[K:bass] x6 :|2 x2[K:bass] x4 |] x3[K:treble] x/ | x8 | x6[K:bass] x2 | x8 | x8 | x8 | x8 | %67
 x2[K:treble] x6 | x2[K:bass] x4 |] %69
V:4
 x2 | x8 | x8 | x8 | x8 | x8 | x8 | x8 | x2!8va(! x4!8va)! :| x2 | x8 | x8 | x8 | x8 | x8 | x8 | %16
 x8 | x2!8va(! x4!8va)! :|[K:C] x3 | x8 | x8 | x8 | x8 | x8 | x8 | x8 | x8 | x8 | x8 | x8 | x8 | %31
 x8 | x8 | x8 | x8 | A4 z4 |!8va(! x8 | x8 | x8 | x8 | x8 | x8 | x8 | x8 | x8 | x5!8va)! x3 | x8 | %47
 x8 | x8 | x5 ||[K:G] x3 |: x8 | x8 | x8 | x8 | x8 | x8 | x8 |1!8va(! x6!8va)! x2 :|2 %59
!8va(! x5!8va)! x |] x7/2 | x8 | x8 | x8 | x8 | x8 | x8 | x8 | x6 |] %69

